static/assets/template/assets/img/icons/essential/detailed/Router.svg

<svg height="125" viewBox="0 0 151 125" width="151" xmlns="http://www.w3.org/2000/svg"><g fill="none" fill-rule="evenodd" transform="translate(2 2)"><path d="m146.8 82.6v25.2c0 4.4-3.6 8-8 8h-130.6c-1.2 0-2.4-.3-3.4-.8-2.7-1.3-4.6-4-4.6-7.2v-25.2c0-4.4 3.6-8 8-8h130.6c3.8 0 7 2.7 7.8 6.2.1.6.2 1.2.2 1.8z" fill-rule="nonzero"/><path d="m146.8 86.8v21.9c0 3.8-3.5 6.9-7.7 6.9h-126.9c-1.2 0-2.3-.2-3.3-.7-2.6-1.1-4.4-3.5-4.4-6.3v-21.9c0-3.8 3.5-6.9 7.7-6.9h126.9c3.7 0 6.8 2.3 7.5 5.4.1.6.2 1.1.2 1.6z" fill-rule="nonzero"/><g stroke-linecap="round" stroke-linejoin="round" stroke-width="3.2"><path d="m25.7 115.7v5.3h-11.9v-5.3"/><path d="m134 115.7v5.3h-11.9v-5.3"/><g transform="translate(2)"><path d="m9.6 21.7c1.1-.6 2.2-1.2 3.4-1.7 3.7-1.6 7.7-2.4 11.8-2.4 5.3 0 10.6 1.4 15.2 4.1"/><path d="m0 8.7c1-.8 2.1-1.6 3.2-2.3 6.4-4.2 13.9-6.4 21.7-6.4 9 0 17.8 3.1 24.9 8.7"/></g><path d="m27.1 32.6v42"/><path d="m59.8 74.6h79c3.8 0 7 2.7 7.8 6.2.1.6.2 1.1.2 1.7v25.2c0 4.4-3.6 8-8 8h-130.6c-1.2 0-2.4-.3-3.4-.8-2.7-1.3-4.6-4-4.6-7.2v-25.2c0-4.4 3.6-8 8-8h27"/><path d="m40.9 74.6h.5"/></g><path d="m119.7 87.9c1.8-1.7 4.2-2.7 6.8-2.7 5.5 0 10 4.5 10 10s-4.5 10-10 10-10-4.5-10-10c0-2.9 1.3-5.5 3.2-7.3" fill-rule="nonzero"/><path d="m127.4 105.1c-.3 0-.6 0-.9 0-5.5 0-10-4.5-10-10 0-2.5.9-4.8 2.5-6.6" stroke-linecap="round" stroke-linejoin="round" stroke-width="3.2"/><path d="m124.8 85.3c.5-.1 1.1-.1 1.7-.1 5.5 0 10 4.5 10 10 0 2.8-1.1 5.3-2.9 7.1" stroke-linecap="round" stroke-linejoin="round" stroke-width="3.2"/><path d="m26.3 89.2v11.9h-11.9v-11.9z" stroke-linecap="round" stroke-linejoin="round" stroke-width="3.2"/><path d="m48.7 99.6v1.5h-11.9v-11.9h11.9v3.5" stroke-linecap="round" stroke-linejoin="round" stroke-width="3.2"/><path d="m59.2 89.2h11.9v11.9h-11.9z" stroke-linecap="round" stroke-linejoin="round" stroke-width="3.2"/></g></svg>

<?xml version="1.0" encoding="UTF-8"?>
<svg width="151px" height="125px" viewBox="0 0 151 125" version="1.1" xmlns="http://www.w3.org/2000/svg" xmlns:xlink="http://www.w3.org/1999/xlink">
    <!-- Generator: Sketch 51.2 (57519) - http://www.bohemiancoding.com/sketch -->
    <title>Router</title>
    <desc>Created with Sketch.</desc>
    <defs></defs>
    <g id="Page-1" stroke="none" stroke-width="1" fill="none" fill-rule="evenodd">
        <g id="Router" transform="translate(2.000000, 2.000000)">
            <path d="M146.8,82.6 L146.8,107.8 C146.8,112.2 143.2,115.8 138.8,115.8 L8.2,115.8 C7,115.8 5.8,115.5 4.8,115 C2.1,113.7 0.2,111 0.2,107.8 L0.2,82.6 C0.2,78.2 3.8,74.6 8.2,74.6 L138.8,74.6 C142.6,74.6 145.8,77.3 146.6,80.8 C146.7,81.4 146.8,82 146.8,82.6 Z" id="Shape" class="fill-neutral" fill-rule="nonzero"></path>
            <path d="M146.8,86.8 L146.8,108.7 C146.8,112.5 143.3,115.6 139.1,115.6 L12.2,115.6 C11,115.6 9.9,115.4 8.9,114.9 C6.3,113.8 4.5,111.4 4.5,108.6 L4.5,86.7 C4.5,82.9 8,79.8 12.2,79.8 L139.1,79.8 C142.8,79.8 145.9,82.1 146.6,85.2 C146.7,85.8 146.8,86.3 146.8,86.8 Z" id="Shape" class="fill-primary-100" fill-rule="nonzero"></path>
            <polyline id="Shape" class="stroke-primary" stroke-width="3.2" stroke-linecap="round" stroke-linejoin="round" points="25.7 115.7 25.7 121 13.8 121 13.8 115.7"></polyline>
            <polyline id="Shape" class="stroke-primary" stroke-width="3.2" stroke-linecap="round" stroke-linejoin="round" points="134 115.7 134 121 122.1 121 122.1 115.7"></polyline>
            <g id="Group" transform="translate(2.000000, 0.000000)" class="stroke-primary" stroke-linecap="round" stroke-linejoin="round" stroke-width="3.2">
                <path d="M9.6,21.7 C10.7,21.1 11.8,20.5 13,20 C16.7,18.4 20.7,17.6 24.8,17.6 C30.1,17.6 35.4,19 40,21.7" id="Shape"></path>
                <path d="M0,8.7 C1,7.9 2.1,7.1 3.2,6.4 C9.6,2.2 17.1,0 24.9,0 C33.9,0 42.7,3.1 49.8,8.7" id="Shape"></path>
            </g>
            <path d="M27.1,32.6 L27.1,74.6" id="Shape" class="stroke-primary" stroke-width="3.2" stroke-linecap="round" stroke-linejoin="round"></path>
            <path d="M59.8,74.6 L138.8,74.6 C142.6,74.6 145.8,77.3 146.6,80.8 C146.7,81.4 146.8,81.9 146.8,82.5 L146.8,107.7 C146.8,112.1 143.2,115.7 138.8,115.7 L8.2,115.7 C7,115.7 5.8,115.4 4.8,114.9 C2.1,113.6 0.2,110.9 0.2,107.7 L0.2,82.5 C0.2,78.1 3.8,74.5 8.2,74.5 L35.2,74.5" id="Shape" class="stroke-primary" stroke-width="3.2" stroke-linecap="round" stroke-linejoin="round"></path>
            <path d="M40.9,74.6 L41.4,74.6" id="Shape" class="stroke-primary" stroke-width="3.2" stroke-linecap="round" stroke-linejoin="round"></path>
            <path d="M119.7,87.9 C121.5,86.2 123.9,85.2 126.5,85.2 C132,85.2 136.5,89.7 136.5,95.2 C136.5,100.7 132,105.2 126.5,105.2 C121,105.2 116.5,100.7 116.5,95.2 C116.5,92.3 117.8,89.7 119.7,87.9" id="Shape" class="fill-neutral" fill-rule="nonzero"></path>
            <path d="M127.4,105.1 C127.1,105.1 126.8,105.1 126.5,105.1 C121,105.1 116.5,100.6 116.5,95.1 C116.5,92.6 117.4,90.3 119,88.5" id="Shape" class="stroke-primary" stroke-width="3.2" stroke-linecap="round" stroke-linejoin="round"></path>
            <path d="M124.8,85.3 C125.3,85.2 125.9,85.2 126.5,85.2 C132,85.2 136.5,89.7 136.5,95.2 C136.5,98 135.4,100.5 133.6,102.3" id="Shape" class="stroke-primary" stroke-width="3.2" stroke-linecap="round" stroke-linejoin="round"></path>
            <polyline id="Shape" class="stroke-primary" stroke-width="3.2" stroke-linecap="round" stroke-linejoin="round" points="26.3 89.2 26.3 101.1 14.4 101.1 14.4 89.2 26.3 89.2"></polyline>
            <polyline id="Shape" class="stroke-primary" stroke-width="3.2" stroke-linecap="round" stroke-linejoin="round" points="48.7 99.6 48.7 101.1 36.8 101.1 36.8 89.2 48.7 89.2 48.7 92.7"></polyline>
            <rect id="Rectangle-path" class="stroke-primary" stroke-width="3.2" stroke-linecap="round" stroke-linejoin="round" x="59.2" y="89.2" width="11.9" height="11.9"></rect>
        </g>
    </g>
</svg>
